svg/fluentui-system-icons/ic_fluent_desktop_toolbox_24_regular.svg

<svg width="24" height="24" viewBox="0 0 24 24" fill="none" xmlns="http://www.w3.org/2000/svg">
<path d="M6.75 22.0004C6.33579 22.0004 6 21.6647 6 21.2504C6 20.8707 6.28215 20.5569 6.64823 20.5073L6.75 20.5004L8.499 20.5V18.002L4.25 18.0023C3.05914 18.0023 2.08436 17.0771 2.00519 15.9063L2 15.7523V5.25C2 4.05914 2.92516 3.08436 4.09595 3.00519L4.25 3H19.7488C20.9397 3 21.9145 3.92516 21.9936 5.09595L21.9988 5.25V13.9187C21.9686 12.8842 21.3671 11.993 20.4988 11.5497V5.25C20.4988 4.8703 20.2167 4.55651 19.8506 4.50685L19.7488 4.5H4.25C3.8703 4.5 3.55651 4.78215 3.50685 5.14823L3.5 5.25V15.7523C3.5 16.132 3.78215 16.4458 4.14823 16.4954L4.25 16.5023H11V18.002H9.998L9.999 20.5004H11V21.5004C11 21.6717 11.0172 21.8389 11.05 22.0004H6.75ZM14 15.0004H13.5C12.6716 15.0004 12 15.672 12 16.5004V18.0004H14.5V17.7504C14.5 17.3362 14.8358 17.0004 15.25 17.0004C15.6642 17.0004 16 17.3362 16 17.7504V18.0004H19V17.7504C19 17.3362 19.3358 17.0004 19.75 17.0004C20.1642 17.0004 20.5 17.3362 20.5 17.7504V18.0004H23V16.5004C23 15.672 22.3284 15.0004 21.5 15.0004H21V14.0004C21 13.0339 20.2165 12.2504 19.25 12.2504H15.75C14.7835 12.2504 14 13.0339 14 14.0004V15.0004ZM15.5 14.0004C15.5 13.8624 15.6119 13.7504 15.75 13.7504H19.25C19.3881 13.7504 19.5 13.8624 19.5 14.0004V15.0004H15.5V14.0004ZM12 21.5004V19.5004H14.5V20.2504C14.5 20.6646 14.8358 21.0004 15.25 21.0004C15.6642 21.0004 16 20.6646 16 20.2504V19.5004H19V20.2504C19 20.6646 19.3358 21.0004 19.75 21.0004C20.1642 21.0004 20.5 20.6646 20.5 20.2504V19.5004H23V21.5004C23 22.3289 22.3284 23.0004 21.5 23.0004H13.5C12.6716 23.0004 12 22.3289 12 21.5004Z" fill="#212121"/>
</svg>

<svg xmlns="http://www.w3.org/2000/svg" width="24" height="24"><path d="M6.75 22a.75.75 0 0 1-.102-1.493l.102-.007h1.749v-2.498H4.25a2.25 2.25 0 0 1-2.245-2.096L2 15.752V5.25a2.25 2.25 0 0 1 2.096-2.245L4.25 3h15.499a2.25 2.25 0 0 1 2.245 2.096l.005.154v8.669a2.75 2.75 0 0 0-1.5-2.37V5.25a.75.75 0 0 0-.648-.743l-.102-.007H4.25a.75.75 0 0 0-.743.648L3.5 5.25v10.502c0 .38.282.694.648.743l.102.007H11v1.5H9.998l.001 2.498H11v1c0 .172.017.339.05.5h-4.3ZM14 15h-.5a1.5 1.5 0 0 0-1.5 1.5V18h2.5v-.25a.75.75 0 0 1 1.5 0V18h3v-.25a.75.75 0 0 1 1.5 0V18H23v-1.5a1.5 1.5 0 0 0-1.5-1.5H21v-1a1.75 1.75 0 0 0-1.75-1.75h-3.5A1.75 1.75 0 0 0 14 14v1Zm1.5-1a.25.25 0 0 1 .25-.25h3.5a.25.25 0 0 1 .25.25v1h-4v-1ZM12 21.5v-2h2.5v.75a.75.75 0 0 0 1.5 0v-.75h3v.75a.75.75 0 0 0 1.5 0v-.75H23v2a1.5 1.5 0 0 1-1.5 1.5h-8a1.5 1.5 0 0 1-1.5-1.5Z"/></svg>
